X:65
T:Flinton Fiddle Club Jig
R:jig
C:Bruce Osborne  --  Nov. 1990
Z:abc by bosborne@kos.net
M:6/8
L:1/8
K:A
CD|E2 E EFE|C2 E A2 B|c2 c cBc|A2 A AGA|\
B2 B BcB|G2 B e2 f|gfe dcB|c2 c cBA|\
E2 E EFE|C2 E A2 B|c2 c cBc|A2 A AGA|\
B2 B BcB|G2 B e2 f|gfe dcB|A2 A A||\
cd|efe c2 A|E2 A c2 A|A,CE AcA|B3 BGA|\
B2 B BcB|G2 B e2 f|gfe dcB|c4 cd|\
efe c2 A|E2 A c2 A|A,CE Aca|f4 fg|\
a2 a agf|efe c2 e|gfe dcB|A3 -A||
